svgs/thin/circle-stop.svg

<svg xmlns="http://www.w3.org/2000/svg" viewBox="0 0 512 512"><!--! Font Awesome Pro 6.6.0 by @fontawesome - https://fontawesome.com License - https://fontawesome.com/license (Commercial License) Copyright 2024 Fonticons, Inc. --><path d="M496 256A240 240 0 1 0 16 256a240 240 0 1 0 480 0zM0 256a256 256 0 1 1 512 0A256 256 0 1 1 0 256zm176-64l0 128c0 8.8 7.2 16 16 16l128 0c8.8 0 16-7.2 16-16l0-128c0-8.8-7.2-16-16-16l-128 0c-8.8 0-16 7.2-16 16zm-16 0c0-17.7 14.3-32 32-32l128 0c17.7 0 32 14.3 32 32l0 128c0 17.7-14.3 32-32 32l-128 0c-17.7 0-32-14.3-32-32l0-128z"/></svg>

<svg xmlns="http://www.w3.org/2000/svg" viewBox="0 0 512 512"><!--! Font Awesome Pro 6.5.2 by @fontawesome - https://fontawesome.com License - https://fontawesome.com/license (Commercial License) Copyright 2024 Fonticons, Inc. --><path d="M496 256A240 240 0 1 0 16 256a240 240 0 1 0 480 0zM0 256a256 256 0 1 1 512 0A256 256 0 1 1 0 256zm176-64V320c0 8.8 7.2 16 16 16H320c8.8 0 16-7.2 16-16V192c0-8.8-7.2-16-16-16H192c-8.8 0-16 7.2-16 16zm-16 0c0-17.7 14.3-32 32-32H320c17.7 0 32 14.3 32 32V320c0 17.7-14.3 32-32 32H192c-17.7 0-32-14.3-32-32V192z"/></svg>
